resources/svg/android.svg

<svg xmlns="http://www.w3.org/2000/svg" viewBox="0 0 15 15" fill="currentColor"><path fill-rule="evenodd" clip-rule="evenodd" d="M7.5 4C6.44445 4 5.44766 4.25161 4.56634 4.69812L2.91603 2.22266L2.08398 2.77736L3.71104 5.21794C2.06927 6.39771 1 8.32399 1 10.5V13H14V10.5C14 8.32399 12.9307 6.39772 11.289 5.21795L12.916 2.77736L12.084 2.22266L10.4337 4.69812C9.55235 4.25161 8.55556 4 7.5 4ZM5 10H4V9H5V10ZM10 10H11V9H10V10Z" fill="black"/></svg>

<svg xmlns="http://www.w3.org/2000/svg" viewBox="0 0 15 15" fill="currentColor"><path fill-rule="evenodd" clip-rule="evenodd" d="M7.5 4a6.473 6.473 0 00-2.934.698l-1.65-2.475-.832.554 1.627 2.44A6.492 6.492 0 001 10.5V13h13v-2.5a6.492 6.492 0 00-2.711-5.282l1.627-2.44-.832-.555-1.65 2.475A6.473 6.473 0 007.5 4zM5 10H4V9h1v1zm5 0h1V9h-1v1z" fill="currentColor"/></svg>
